X: 114
T: My Lodging Is on the Cold Ground   #2
R: jig
%S: s:4 b:12(6+6)
B: O'Neill's 1850 #114
Q: "Slow with feeling"
Z: 1997 henrik.norbeck@mailbox.swipnet.se
N: Compacted via repeats and multiple endings [JC]
N: Compacted by using labels and play order [JC]
P: Play A2A2 BA2
M: 6/8
L: 1/8
K: G
"^A"[|] (B/>A/) | (G>AG) (GBd) | (ceg) [1 (g2f/>e/) | (d>cB) ({AB}AG>A) | B3- B2 :|[2 Hg2(f/e/) | (dgB) (A{BA}GA) |
| G3- "^fine"G2 "^B"|[| (d/>c/) | (Bd).g g2d/d/ | (ec).g g2(f/e/) | (d>cB) ({AB}AG>A) | B3- "^->A2"B2 |]
